X: 25908
T: Maud Millar
R: reel
M: 4/4
K: Gmajor
||gf|edBA GBDE|G2BG dGBd|eBdB A2GA|1 Beed efgf:|2 Beed ~e2ge||
dggf g3~b|agef g2ed|Bdeg bagb|aged eage|
d~g3 agbg|agef ~g3a|bgaf gfed|Beed efgf||

